public/svg/icon/generic.svg

<svg xmlns="http://www.w3.org/2000/svg" xmlns:xlink="http://www.w3.org/1999/xlink" width="32" height="32" viewBox="0 0 32 32"><defs><linearGradient id="generic-c" x1="50%" x2="50%" y1="0%" y2="100%"><stop offset="0%" stop-color="#FFF" stop-opacity=".5"/><stop offset="100%" stop-opacity=".5"/></linearGradient><circle id="generic-b" cx="16" cy="15" r="15"/><filter id="generic-a" width="111.7%" height="111.7%" x="-5.8%" y="-4.2%" filterUnits="objectBoundingBox"><feOffset dy=".5" in="SourceAlpha" result="shadowOffsetOuter1"/><feGaussianBlur in="shadowOffsetOuter1" result="shadowBlurOuter1" stdDeviation=".5"/><feComposite in="shadowBlurOuter1" in2="SourceAlpha" operator="out" result="shadowBlurOuter1"/><feColorMatrix in="shadowBlurOuter1" values="0 0 0 0 0 0 0 0 0 0 0 0 0 0 0 0 0 0 0.199473505 0"/></filter><path id="generic-e" d="M21.0016811,8.85510634 C22.6914362,10.1867447 23.7848941,12.1476471 24,14.277862 L21.1530875,13.5698978 C20.6363465,11.8233193 19.2149618,10.3812174 17.2935489,9.90340444 C14.4266228,9.19046325 11.5321103,10.8943338 10.8284742,13.7091058 C10.1248381,16.5238778 11.8785311,19.3836544 14.7454571,20.0965956 C16.66687,20.5744085 18.6006739,19.9666679 19.8790404,18.6664945 L22.7259541,19.3744576 C21.5333372,21.154603 19.6448767,22.3739681 17.5261108,22.7585114 L16.7158042,26 L14.1202898,25.3545529 L14.763854,22.7800881 C14.5455649,22.7442117 14.3269461,22.6992324 14.1084341,22.6448933 C13.8899222,22.5905542 13.6757216,22.5279009 13.4660968,22.4573645 L12.8225326,25.0318293 L10.2270182,24.3863822 L11.0373248,21.1448937 C8.65871975,19.2703961 7.46168601,16.1490032 8.23295979,13.0636587 C9.00423357,9.97831416 11.5303877,7.7827958 14.5128951,7.24148858 L15.3232018,4 L17.9187162,4.64544711 L17.275152,7.21991194 C17.4934411,7.25578832 17.7120599,7.30076756 17.9305718,7.35510666 C18.1490838,7.40944576 18.3632844,7.47209915 18.5729092,7.54263549 L19.2164734,4.96817066 L21.8119878,5.61361777 L21.0016811,8.85510634 Z"/><filter id="generic-d" width="121.9%" height="115.9%" x="-10.9%" y="-5.7%" filterUnits="objectBoundingBox"><feOffset dy=".5" in="SourceAlpha" result="shadowOffsetOuter1"/><feGaussianBlur in="shadowOffsetOuter1" result="shadowBlurOuter1" stdDeviation=".5"/><feColorMatrix in="shadowBlurOuter1" values="0 0 0 0 0 0 0 0 0 0 0 0 0 0 0 0 0 0 0.204257246 0"/></filter></defs><g fill="none" fill-rule="evenodd"><g fill-rule="nonzero"><use fill="#000" filter="url(#generic-a)" xlink:href="#generic-b"/><use fill="#EFB914" fill-rule="evenodd" xlink:href="#generic-b"/><use fill="url(#generic-c)" fill-rule="evenodd" style="mix-blend-mode:soft-light" xlink:href="#generic-b"/><circle cx="16" cy="15" r="14.5" stroke="#000" stroke-opacity=".097"/></g><use fill="#000" filter="url(#generic-d)" xlink:href="#generic-e"/><use fill="#FFF" xlink:href="#generic-e"/></g></svg>

<svg xmlns="http://www.w3.org/2000/svg" xmlns:xlink="http://www.w3.org/1999/xlink" width="32" height="32" viewBox="0 0 32 32"><defs><filter id="a" width="111.7%" height="111.7%" x="-5.8%" y="-4.2%" filterUnits="objectBoundingBox"><feOffset dy=".5" in="SourceAlpha" result="shadowOffsetOuter1"/><feGaussianBlur in="shadowOffsetOuter1" result="shadowBlurOuter1" stdDeviation=".5"/><feComposite in="shadowBlurOuter1" in2="SourceAlpha" operator="out" result="shadowBlurOuter1"/><feColorMatrix in="shadowBlurOuter1" values="0 0 0 0 0 0 0 0 0 0 0 0 0 0 0 0 0 0 0.199473505 0"/></filter><filter id="d" width="121.9%" height="115.9%" x="-10.9%" y="-5.7%" filterUnits="objectBoundingBox"><feOffset dy=".5" in="SourceAlpha" result="shadowOffsetOuter1"/><feGaussianBlur in="shadowOffsetOuter1" result="shadowBlurOuter1" stdDeviation=".5"/><feColorMatrix in="shadowBlurOuter1" values="0 0 0 0 0 0 0 0 0 0 0 0 0 0 0 0 0 0 0.204257246 0"/></filter><linearGradient id="c" x1="50%" x2="50%" y1="0%" y2="100%"><stop offset="0%" stop-color="#FFF" stop-opacity=".5"/><stop offset="100%" stop-opacity=".5"/></linearGradient><circle id="b" cx="16" cy="15" r="15"/><path id="e" d="M21.002 8.855A7.947 7.947 0 0124 14.278l-2.847-.708a5.357 5.357 0 00-3.86-3.667c-2.866-.713-5.76.991-6.465 3.806-.703 2.815 1.05 5.675 3.917 6.388a5.373 5.373 0 005.134-1.43l2.847.707a7.974 7.974 0 01-5.2 3.385L16.716 26l-2.596-.645.644-2.575a8.28 8.28 0 01-1.298-.323l-.643 2.575-2.596-.646.81-3.241c-2.378-1.875-3.575-4.996-2.804-8.081.771-3.086 3.297-5.281 6.28-5.823L15.323 4l2.596.645-.644 2.575a8.28 8.28 0 011.298.323l.643-2.575 2.596.646-.81 3.241z"/></defs><g fill="none" fill-rule="evenodd"><g fill-rule="nonzero"><use fill="#000" filter="url(#a)" xlink:href="#b"/><use fill="#EFB914" fill-rule="evenodd" xlink:href="#b"/><use fill="url(#c)" fill-rule="evenodd" style="mix-blend-mode:soft-light" xlink:href="#b"/><circle cx="16" cy="15" r="14.5" stroke="#000" stroke-opacity=".097"/></g><use fill="#000" filter="url(#d)" xlink:href="#e"/><use fill="#FFF" xlink:href="#e"/></g></svg>
